X:1
T:Title
%%score { ( 1 3 5 ) | ( 2 4 ) }
L:1/8
Q:1/4=100
M:4/4
K:Bb
V:1 treble nm="Grand Piano"
V:3 treble 
V:5 treble 
V:2 bass 
V:4 bass 
V:1
 B,2 D2 F3 F | GABc d2 B2 | [Be]3 [Be] [Bd]3 [Bd] | z2 [=Ec]2 c2[K:bass] z2 | %4
w: James~McGranahan * * *||||
 B,2 D2[K:treble] F3 F | GABc d2 B2 | z4 [Fd]2[K:bass][K:treble] z2 | [Fd]2 [Ec]2 [DB]4 | %8
w: ||||
 .D2 .D2 .D2 .D2 | .D2 .D2 D[F,DF] z2 | d6 z2 | z2 c4 z2 | c6 z2 | B6 z2 | d4 z4 | z2 e4 z2 | %16
w: ||||||||
 d3 d c2 c2 | [B,DB]6 A>B | c6[K:bass][K:treble] z2 | [DFB]6 [EFc]>[DBd] | %20
w: ||||
 [Ae]6[K:bass][K:treble] z2 | [Fd]6 [DFB]>[CFc] | z2 z d d2 [_Af]2 | [Gf]2 [Ge]4 [Ge]>[Ge] | %24
w: ||||
 [Fd]3 [Fd] .[Fc]2 .[Fc]2[Q:1/4=99][Q:1/4=97][Q:1/4=96][Q:1/4=94][Q:1/4=93][Q:1/4=91][Q:1/4=90][Q:1/4=88][Q:1/4=87][Q:1/4=85][Q:1/4=84][Q:1/4=82][Q:1/4=81][Q:1/4=79][Q:1/4=78][Q:1/4=76] | %25
w: |
 [FB]4 z4 |] %26
w: |
V:2
 B,,2 D,2 F,3 F, | G,A,B,C D2 B,2 | [G,B,]3 [G,B,] [F,B,]3 [B,,B,] | %3
 [C,A,]2 .[C,G,]2 .[F,A,F]2 z2 | B,,2 D,2 F,3 F, | G,A,B,C D2 B,2 | z4 z2 B,2 | %7
 [F,B,]2 [F,A,]F, [B,,F,]4 | .[B,,F,]2 .[B,,F,]2 .[B,,F,]2 .[B,,F,]2 | %9
 .[B,,F,]2 .[B,,F,]2 [B,,F,]B,,[K:treble] B>c | .[B,,B,]2 .[B,,B,]2 .[B,,B,]2 .[B,,B,]2 | %11
 .[F,B,F]2 .[F,A,F]2 [F,A,][F,A,] z2 | .[F,A,F]2 .[F,A,]2 .[F,A,]2 .[F,A,F]2 | %13
 .[B,,B,]2 .[B,,B,]2 [B,,B,]2 z2 | [B,F]2 [_A,B,]2 [G,B,G]2[K:bass] [D,B,]2 | %15
 [E,B,]2 [E,B,]2 [E,B,][E,B,] [E,B,]>[E,B,] | [F,B,F]3 [F,B,F] [F,A,E]2 [F,A,E]2 | %17
 B,,2 B,,>D, z2 [CF]>[B,F] | [A,E]4- [A,E]>[F,A,] [F,B,]>F, | B,,>B,, D,>F, B,2 A,>B, | %20
 C4- C>[F,B,] [F,C]>[F,D] | B,4 z4 | B,2 z[K:treble] F [G,B,G]2[K:bass] [D,B,]2 | %23
 [E,B,]2 [E,B,]4 [E,B,]>[E,B,] | [F,B,]3 [F,B,] [F,A,]2 [F,E]2 | B,,6 z2 |] %26
V:3
 x8 | x8 | x8 | [Fc]2 z B, z[K:bass] E,D,C, | x4[K:treble] x4 | x8 | %6
 [Ge]3 [Ge] z[K:bass] C,[K:treble][Ff][Ge] | x8 | x8 | x8 | .F2 .F2 .F>B .[Ge]>d | d2 z2 FF A>B | %12
 z2 .F2 .F>e d>c | .D2 .D2 D2 B>c | z2 z d d2 [_Af]2 | [Gf]2 G2 GG [GB]>[Gc] | x8 | x8 | %18
 z z/[K:bass] F,/ F,2 F,>[K:treble][Ge] [Fd]>[CFc] | x8 | %20
 z z/[K:bass] F,/ F,2 F,>[K:treble][Bd] [Fe]>[Ff] | x8 | [Fd]4 z4 | x8 | x8 | D6 z2 |] %26
V:4
 x8 | x8 | x8 | x8 | x8 | x8 | [E,B,]3 [E,B,] .[B,,B,]2 D,E, | x8 | x8 | x6[K:treble] x2 | x8 | %11
 x8 | x8 | x8 | x6[K:bass] x2 | x8 | x8 | z4 F,4- | F,2 z2 z4 | x8 | F,2 z2 z4 | %21
 z z/ F,/ D,>F, B,2 B,>B, | z2 _A,2[K:treble] z4[K:bass] | x8 | x8 | x8 |] %26
V:5
 x8 | x8 | x8 | x5[K:bass] x3 | x4[K:treble] x4 | x8 | x5[K:bass] x[K:treble] x2 | x8 | x8 | x8 | %10
 x8 | x8 | x8 | x8 | z2 F2 z4 | x8 | x8 | x8 | x3/2[K:bass] x4[K:treble] x5/2 | x8 | %20
 x3/2[K:bass] x4[K:treble] x5/2 | x8 | z2 B,2 z4 | x8 | x8 | x8 |] %26

